dist/img/sprites/icon_bathroom.svg

<svg width="25" height="25" viewBox="0 0 25 25" fill="none" xmlns="http://www.w3.org/2000/svg">
<g clip-path="url(#clip0_201_1045)">
<path d="M15.3924 13.595H4.10891C3.99363 13.595 3.88308 13.6408 3.80157 13.7223C3.72006 13.8038 3.67427 13.9144 3.67427 14.0297C3.67434 14.1449 3.72016 14.2554 3.80167 14.3369C3.88317 14.4183 3.99368 14.4641 4.10891 14.4641H15.3924C15.5075 14.464 15.618 14.4182 15.6994 14.3368C15.7809 14.2553 15.8267 14.1449 15.8267 14.0297C15.8267 13.9144 15.781 13.8039 15.6995 13.7224C15.6181 13.6409 15.5076 13.595 15.3924 13.595Z" fill="#23272B"/>
<path d="M23.6306 12.2288C23.3387 11.8536 22.8902 11.638 22.3967 11.638H21.0341V3.0485C21.0271 1.36613 19.6538 0 17.9748 0C16.4837 0 15.2324 1.08098 14.9682 2.49932C13.7584 2.7218 12.7851 3.67067 12.5628 4.91873C12.535 5.07522 12.5488 5.23484 12.5976 5.38447C12.6365 5.50104 12.6966 5.60944 12.7748 5.70425C12.9556 5.91987 13.2198 6.0448 13.4977 6.0448H17.5196C17.8012 6.0448 18.0759 5.91621 18.2565 5.70432C18.4374 5.48869 18.5172 5.19322 18.4652 4.9188C18.2496 3.71235 17.332 2.7844 16.1779 2.52369C16.4107 1.7485 17.1267 1.18173 17.9749 1.18173C19.0039 1.18173 19.8451 2.02292 19.852 3.05543V11.6449H1.56084C1.07419 11.6449 0.62943 11.8605 0.337221 12.2358C0.0451482 12.6112 -0.055604 13.1188 0.0661269 13.5914L1.55738 19.3758C1.88754 20.6549 2.79139 21.6663 3.94903 22.1705L3.69864 23.9118C3.66048 24.1797 3.74033 24.4473 3.92459 24.6592C4.11238 24.8748 4.37308 25 4.63718 25H5.09953C5.33946 25 5.56887 24.9061 5.7532 24.7324L8.10295 22.5145H15.8683L18.2184 24.7324C18.4026 24.9061 18.632 24.9999 18.8718 24.9999H19.334C19.6053 24.9999 19.8764 24.8713 20.0607 24.6591C20.2379 24.4541 20.3145 24.1866 20.2761 23.9118L20.0225 22.167C21.1764 21.6629 22.0734 20.6548 22.4035 19.3792L23.9051 13.5948C24.0268 13.1116 23.9226 12.6077 23.6306 12.2288ZM17.2347 4.8596H13.7931C14.0331 4.15732 14.6797 3.66035 15.434 3.62905C15.4584 3.63244 15.479 3.63244 15.5034 3.63244H15.5069C15.5313 3.63244 15.5557 3.62905 15.5801 3.62905C16.3447 3.65689 16.9947 4.15046 17.2347 4.8596ZM4.99871 23.8146H4.90481L5.096 22.4798C5.26654 22.5007 5.44021 22.5111 5.61741 22.5111H6.37883L4.99871 23.8146ZM19.063 23.8146H18.9691L17.5893 22.5111H18.3366C18.5172 22.5111 18.6946 22.5007 18.8684 22.4764L19.063 23.8146ZM18.3366 21.3293H5.61748C4.2411 21.3293 3.04178 20.4011 2.69757 19.0733L1.20631 13.2891C1.17508 13.1743 1.19945 13.0423 1.26891 12.9555C1.35242 12.8441 1.47421 12.8232 1.55745 12.8232H22.3933C22.5185 12.8232 22.6295 12.872 22.6956 12.9556C22.7617 13.0423 22.786 13.1743 22.7582 13.2891L21.2566 19.0733C20.9124 20.4011 19.7131 21.3293 18.3367 21.3293H18.3366Z" fill="#23272B"/>
<path d="M13.6297 7.80732C13.6709 7.8075 13.7117 7.79953 13.7497 7.78386C13.7878 7.7682 13.8223 7.74515 13.8514 7.71605C13.8805 7.68695 13.9036 7.65238 13.9193 7.61432C13.9349 7.57627 13.9429 7.53549 13.9427 7.49434V6.52463C13.9429 6.48349 13.9349 6.44273 13.9192 6.4047C13.9036 6.36666 13.8805 6.33211 13.8514 6.30303C13.8223 6.27396 13.7877 6.25093 13.7497 6.2353C13.7116 6.21966 13.6709 6.21171 13.6297 6.21192C13.5886 6.21175 13.5479 6.21972 13.5099 6.23538C13.4719 6.25103 13.4373 6.27406 13.4083 6.30313C13.3792 6.33221 13.3562 6.36675 13.3405 6.40476C13.3249 6.44278 13.3169 6.48352 13.3171 6.52463V7.49447C13.3169 7.5356 13.3249 7.57636 13.3405 7.61439C13.3562 7.65243 13.3792 7.68699 13.4083 7.71609C13.4373 7.74518 13.4719 7.76824 13.5099 7.78392C13.5479 7.7996 13.5887 7.8076 13.6298 7.80746L13.6297 7.80732ZM13.3171 9.41311C13.3169 9.45425 13.3248 9.49502 13.3405 9.53307C13.3561 9.57111 13.3791 9.60569 13.4082 9.63479C13.4373 9.66389 13.4718 9.68694 13.5099 9.70261C13.5479 9.71828 13.5887 9.72626 13.6298 9.72609C13.6709 9.72628 13.7117 9.71832 13.7498 9.70265C13.7878 9.68699 13.8224 9.66394 13.8515 9.63484C13.8806 9.60574 13.9036 9.57116 13.9193 9.5331C13.935 9.49504 13.9429 9.45426 13.9427 9.41311V8.45393C13.9429 8.41277 13.935 8.37198 13.9193 8.33392C13.9036 8.29586 13.8806 8.26128 13.8515 8.23217C13.8224 8.20307 13.7878 8.18002 13.7497 8.16436C13.7117 8.14871 13.6709 8.14075 13.6297 8.14094C13.5886 8.14078 13.5478 8.14877 13.5098 8.16444C13.4718 8.18012 13.4372 8.20317 13.4082 8.23227C13.3791 8.26137 13.3561 8.29594 13.3405 8.33399C13.3248 8.37203 13.3169 8.4128 13.3171 8.45393V9.41311ZM14.8362 7.80732C14.8773 7.80746 14.9181 7.79946 14.9561 7.78378C14.9941 7.7681 15.0286 7.74505 15.0577 7.71595C15.0868 7.68686 15.1098 7.6523 15.1255 7.61426C15.1411 7.57622 15.1491 7.53547 15.1489 7.49434V6.52463C15.1491 6.48351 15.1411 6.44277 15.1255 6.40475C15.1098 6.36673 15.0868 6.33218 15.0577 6.30311C15.0286 6.27403 14.9941 6.25101 14.9561 6.23536C14.918 6.2197 14.8773 6.21174 14.8362 6.21192C14.795 6.21171 14.7543 6.21966 14.7162 6.2353C14.6782 6.25093 14.6436 6.27396 14.6145 6.30303C14.5854 6.33211 14.5623 6.36666 14.5467 6.4047C14.531 6.44273 14.523 6.48349 14.5232 6.52463V7.49447C14.523 7.53562 14.531 7.5764 14.5467 7.61446C14.5623 7.65251 14.5854 7.68709 14.6145 7.71619C14.6436 7.74528 14.6781 7.76833 14.7162 7.784C14.7542 7.79966 14.795 7.80764 14.8362 7.80746V7.80732ZM14.5232 9.41311C14.523 9.45427 14.531 9.49506 14.5466 9.53312C14.5623 9.57118 14.5853 9.60576 14.6144 9.63486C14.6435 9.66397 14.6781 9.68701 14.7162 9.70267C14.7542 9.71833 14.795 9.72629 14.8362 9.72609C14.8773 9.72626 14.9181 9.71828 14.9561 9.70261C14.9941 9.68694 15.0287 9.66389 15.0578 9.63479C15.0869 9.60569 15.1099 9.57111 15.1255 9.53307C15.1411 9.49502 15.1491 9.45425 15.1489 9.41311V8.45393C15.1491 8.41279 15.1411 8.37202 15.1255 8.33397C15.1099 8.29592 15.0869 8.26135 15.0578 8.23225C15.0287 8.20315 14.9941 8.1801 14.9561 8.16442C14.9181 8.14875 14.8773 8.14077 14.8362 8.14094C14.795 8.14075 14.7542 8.14871 14.7162 8.16436C14.6781 8.18002 14.6435 8.20307 14.6144 8.23217C14.5853 8.26128 14.5623 8.29586 14.5466 8.33392C14.531 8.37198 14.523 8.41277 14.5232 8.45393V9.41311ZM16.032 7.80732C16.0731 7.80746 16.1138 7.79946 16.1519 7.78378C16.1899 7.7681 16.2244 7.74505 16.2535 7.71595C16.2826 7.68686 16.3056 7.6523 16.3212 7.61426C16.3369 7.57622 16.3449 7.53547 16.3447 7.49434V6.52463C16.3449 6.48351 16.3369 6.44277 16.3212 6.40475C16.3056 6.36673 16.2826 6.33218 16.2535 6.30311C16.2244 6.27403 16.1899 6.25101 16.1518 6.23536C16.1138 6.2197 16.0731 6.21174 16.032 6.21192C15.9908 6.21172 15.9501 6.21967 15.912 6.23532C15.874 6.25096 15.8394 6.27398 15.8103 6.30306C15.7812 6.33213 15.7582 6.36668 15.7425 6.40471C15.7269 6.44274 15.7189 6.4835 15.719 6.52463V7.49447C15.7189 7.53562 15.7268 7.5764 15.7425 7.61446C15.7582 7.65251 15.7812 7.68709 15.8103 7.71619C15.8394 7.74528 15.874 7.76833 15.912 7.784C15.9501 7.79966 15.9909 7.80764 16.032 7.80746L16.032 7.80732ZM15.719 9.41311C15.7189 9.45427 15.7268 9.49506 15.7425 9.53312C15.7581 9.57118 15.7812 9.60576 15.8103 9.63486C15.8394 9.66397 15.874 9.68701 15.912 9.70267C15.9501 9.71833 15.9909 9.72629 16.032 9.72609C16.0732 9.72626 16.1139 9.71827 16.1519 9.70259C16.19 9.68692 16.2245 9.66386 16.2536 9.63476C16.2827 9.60566 16.3057 9.57109 16.3213 9.53305C16.3369 9.49501 16.3449 9.45424 16.3447 9.41311V8.45393C16.3449 8.41279 16.3369 8.37202 16.3213 8.33397C16.3057 8.29592 16.2826 8.26135 16.2536 8.23225C16.2245 8.20315 16.1899 8.1801 16.1519 8.16442C16.1139 8.14875 16.0731 8.14077 16.032 8.14094C15.9908 8.14075 15.95 8.14872 15.912 8.16438C15.8739 8.18005 15.8393 8.2031 15.8103 8.2322C15.7812 8.2613 15.7581 8.29588 15.7425 8.33394C15.7268 8.37199 15.7189 8.41278 15.719 8.45393V9.41311ZM17.2382 7.80732C17.2793 7.80746 17.3201 7.79945 17.3581 7.78376C17.3961 7.76808 17.4306 7.74502 17.4597 7.71593C17.4888 7.68683 17.5118 7.65228 17.5274 7.61424C17.5431 7.57621 17.551 7.53546 17.5509 7.49434V6.52463C17.551 6.48351 17.5431 6.44277 17.5274 6.40475C17.5118 6.36673 17.4887 6.33218 17.4597 6.30311C17.4306 6.27403 17.396 6.25101 17.358 6.23536C17.32 6.2197 17.2793 6.21174 17.2381 6.21192C17.197 6.21171 17.1562 6.21966 17.1182 6.2353C17.0801 6.25093 17.0456 6.27396 17.0165 6.30303C16.9874 6.33211 16.9643 6.36666 16.9486 6.4047C16.933 6.44273 16.925 6.48349 16.9252 6.52463V7.49447C16.925 7.53562 16.9329 7.5764 16.9486 7.61446C16.9643 7.65251 16.9873 7.68709 17.0164 7.71619C17.0455 7.74528 17.0801 7.76833 17.1182 7.784C17.1562 7.79966 17.197 7.80764 17.2381 7.80746L17.2382 7.80732ZM16.9252 9.41311C16.925 9.45427 16.933 9.49506 16.9486 9.53312C16.9643 9.57118 16.9874 9.60576 17.0165 9.63486C17.0456 9.66397 17.0801 9.68701 17.1182 9.70267C17.1563 9.71833 17.1971 9.72629 17.2382 9.72609C17.2793 9.72626 17.3201 9.71827 17.3581 9.70259C17.3961 9.68692 17.4307 9.66386 17.4598 9.63476C17.4888 9.60566 17.5118 9.57109 17.5275 9.53305C17.5431 9.49501 17.5511 9.45424 17.5509 9.41311V8.45393C17.5511 8.41279 17.5431 8.37202 17.5275 8.33397C17.5118 8.29592 17.4888 8.26135 17.4597 8.23225C17.4307 8.20315 17.3961 8.1801 17.3581 8.16442C17.32 8.14875 17.2793 8.14077 17.2381 8.14094C17.197 8.14075 17.1562 8.14871 17.1181 8.16436C17.0801 8.18002 17.0455 8.20307 17.0164 8.23217C16.9873 8.26128 16.9642 8.29586 16.9486 8.33392C16.9329 8.37198 16.925 8.41277 16.9252 8.45393L16.9252 9.41311ZM13.3171 11.0574C13.3169 11.0985 13.3249 11.1393 13.3405 11.1773C13.3562 11.2154 13.3792 11.2499 13.4083 11.279C13.4373 11.3081 13.4719 11.3312 13.5099 11.3468C13.5479 11.3625 13.5887 11.3705 13.6298 11.3704C13.6709 11.3706 13.7117 11.3626 13.7498 11.3469C13.7878 11.3312 13.8224 11.3082 13.8515 11.2791C13.8806 11.25 13.9036 11.2154 13.9193 11.1774C13.9349 11.1393 13.9429 11.0985 13.9427 11.0574V10.383C13.9429 10.3419 13.9349 10.3011 13.9192 10.2631C13.9036 10.2251 13.8805 10.1905 13.8514 10.1614C13.8223 10.1323 13.7877 10.1093 13.7497 10.0937C13.7116 10.078 13.6709 10.0701 13.6297 10.0703C13.5886 10.0701 13.5479 10.0781 13.5099 10.0938C13.4719 10.1094 13.4373 10.1325 13.4083 10.1615C13.3792 10.1906 13.3562 10.2251 13.3405 10.2632C13.3249 10.3012 13.3169 10.3419 13.3171 10.383V11.0574ZM14.5232 11.0574C14.523 11.0985 14.531 11.1393 14.5467 11.1774C14.5623 11.2154 14.5854 11.25 14.6145 11.2791C14.6436 11.3082 14.6781 11.3313 14.7162 11.3469C14.7542 11.3626 14.795 11.3706 14.8362 11.3704C14.8773 11.3705 14.9181 11.3625 14.9561 11.3468C14.9941 11.3312 15.0286 11.3081 15.0577 11.279C15.0868 11.2499 15.1098 11.2154 15.1255 11.1773C15.1411 11.1393 15.1491 11.0985 15.1489 11.0574V10.383C15.1491 10.3419 15.1411 10.3012 15.1255 10.2631C15.1098 10.2251 15.0868 10.1906 15.0577 10.1615C15.0286 10.1324 14.9941 10.1094 14.9561 10.0937C14.918 10.0781 14.8773 10.0701 14.8362 10.0703C14.795 10.0701 14.7543 10.078 14.7162 10.0937C14.6782 10.1093 14.6436 10.1323 14.6145 10.1614C14.5854 10.1905 14.5623 10.2251 14.5467 10.2631C14.531 10.3011 14.523 10.3419 14.5232 10.383V11.0574ZM15.719 11.0574C15.7189 11.0985 15.7268 11.1393 15.7425 11.1774C15.7582 11.2154 15.7812 11.25 15.8103 11.2791C15.8394 11.3082 15.874 11.3313 15.912 11.3469C15.9501 11.3626 15.9909 11.3706 16.032 11.3704C16.0732 11.3705 16.1139 11.3625 16.1519 11.3468C16.1899 11.3311 16.2245 11.3081 16.2535 11.279C16.2826 11.2499 16.3056 11.2153 16.3213 11.1773C16.3369 11.1393 16.3449 11.0985 16.3447 11.0574V10.383C16.3449 10.3419 16.3369 10.3012 16.3212 10.2631C16.3056 10.2251 16.2826 10.1906 16.2535 10.1615C16.2244 10.1324 16.1899 10.1094 16.1518 10.0937C16.1138 10.0781 16.0731 10.0701 16.032 10.0703C15.9908 10.0701 15.9501 10.0781 15.912 10.0937C15.874 10.1093 15.8394 10.1324 15.8103 10.1614C15.7812 10.1905 15.7582 10.2251 15.7425 10.2631C15.7269 10.3011 15.7189 10.3419 15.719 10.383V11.0574ZM16.9252 11.0574C16.925 11.0985 16.933 11.1393 16.9487 11.1774C16.9643 11.2154 16.9874 11.25 17.0165 11.2791C17.0456 11.3082 17.0802 11.3313 17.1182 11.3469C17.1563 11.3626 17.1971 11.3706 17.2382 11.3704C17.2793 11.3705 17.3201 11.3625 17.3581 11.3468C17.3961 11.3311 17.4306 11.3081 17.4597 11.279C17.4888 11.2499 17.5118 11.2153 17.5274 11.1773C17.5431 11.1393 17.551 11.0985 17.5509 11.0574V10.383C17.551 10.3419 17.5431 10.3012 17.5274 10.2631C17.5118 10.2251 17.4887 10.1906 17.4597 10.1615C17.4306 10.1324 17.396 10.1094 17.358 10.0937C17.32 10.0781 17.2793 10.0701 17.2381 10.0703C17.197 10.0701 17.1562 10.078 17.1182 10.0937C17.0801 10.1093 17.0456 10.1323 17.0165 10.1614C16.9874 10.1905 16.9643 10.2251 16.9486 10.2631C16.933 10.3011 16.925 10.3419 16.9252 10.383L16.9252 11.0574Z" fill="#23272B"/>
</g>
<defs>
<clipPath id="clip0_201_1045">
<rect width="25" height="25" fill="white"/>
</clipPath>
</defs>
</svg>

<svg width="25" height="25" viewBox="0 0 25 25" fill="none" xmlns="http://www.w3.org/2000/svg"><g clip-path="url(#clip0_201_1045)" fill="#23272B"><path d="M15.392 13.595H4.11a.435.435 0 000 .87h11.283a.435.435 0 000-.87z"/><path d="M23.63 12.229a1.546 1.546 0 00-1.233-.591h-1.363v-8.59A3.066 3.066 0 0017.974 0a3.069 3.069 0 00-3.006 2.5 2.993 2.993 0 00-2.405 2.419.96.96 0 00.212.785c.18.216.445.34.723.34h4.022a.98.98 0 00.736-.34.962.962 0 00.21-.785 2.995 2.995 0 00-2.288-2.395 1.88 1.88 0 011.797-1.342c1.029 0 1.87.84 1.877 1.873v8.59H1.561c-.487 0-.932.216-1.224.59a1.58 1.58 0 00-.27 1.356l1.49 5.785A4.194 4.194 0 003.95 22.17l-.25 1.742a.93.93 0 00.226.747.953.953 0 00.712.341H5.1c.24 0 .469-.094.653-.268l2.35-2.217h7.765l2.35 2.217a.948.948 0 00.654.268h.462a.98.98 0 00.727-.34.933.933 0 00.215-.748l-.253-1.745a4.185 4.185 0 002.38-2.788l1.502-5.784a1.598 1.598 0 00-.274-1.366zm-6.395-7.37h-3.442a1.817 1.817 0 011.641-1.23c.024.003.045.003.07.003h.003l.073-.003a1.81 1.81 0 011.655 1.23zM4.999 23.816h-.094l.191-1.335c.17.02.344.031.521.031h.762l-1.38 1.304zm14.064 0h-.094l-1.38-1.304h.748c.18 0 .358-.01.531-.035l.195 1.339zm-.726-2.486H5.617a3.014 3.014 0 01-2.92-2.256l-1.49-5.784a.388.388 0 01.062-.333.347.347 0 01.288-.133h20.836a.38.38 0 01.303.133.41.41 0 01.062.333l-1.501 5.784a3.014 3.014 0 01-2.92 2.256z"/><path d="M13.63 7.807a.311.311 0 00.313-.313v-.97a.31.31 0 00-.313-.312.311.311 0 00-.313.313v.97a.312.312 0 00.313.312zm-.313 1.606a.31.31 0 00.313.313.312.312 0 00.313-.313v-.96a.31.31 0 00-.313-.312.312.312 0 00-.313.313v.96zm1.52-1.606a.312.312 0 00.312-.313v-.97a.312.312 0 00-.534-.221.31.31 0 00-.092.222v.97a.31.31 0 00.313.312zm-.314 1.606a.313.313 0 10.626 0v-.96a.312.312 0 10-.626 0v.96zm1.509-1.606a.312.312 0 00.313-.313v-.97a.31.31 0 00-.313-.312.312.312 0 00-.313.313v.97a.313.313 0 00.313.312zm-.313 1.606a.313.313 0 10.626 0v-.96a.312.312 0 10-.626 0v.96zm1.52-1.606a.312.312 0 00.312-.313v-.97a.312.312 0 00-.534-.221.312.312 0 00-.092.222v.97a.31.31 0 00.313.312zm-.314 1.606a.313.313 0 10.626 0v-.96a.312.312 0 10-.626 0v.96zm-3.608 1.644a.312.312 0 00.534.222.313.313 0 00.092-.222v-.674a.31.31 0 00-.313-.313.31.31 0 00-.313.313v.674zm1.206 0a.311.311 0 00.313.313.312.312 0 00.313-.313v-.674a.312.312 0 10-.626 0v.674zm1.196 0a.313.313 0 10.626 0v-.674a.31.31 0 00-.313-.313.312.312 0 00-.313.313v.674zm1.206 0a.311.311 0 00.313.313.312.312 0 00.313-.313v-.674a.312.312 0 10-.626 0v.674z"/></g><defs><clipPath id="clip0_201_1045"><path fill="#fff" d="M0 0h25v25H0z"/></clipPath></defs></svg>
